static/icons/github.svg

<svg xmlns="http://www.w3.org/2000/svg" viewBox="0 0 24 24" width="24" height="24"><path d="M5.88401 18.6531C5.58404 18.4523 5.32587 18.1972 5.0239 17.8366C4.91473 17.7062 4.47283 17.1521 4.55811 17.258C4.09533 16.6831 3.80296 16.4168 3.50156 16.3087C2.9817 16.1223 2.7114 15.5497 2.89784 15.0298C3.08428 14.51 3.65685 14.2397 4.17672 14.4261C4.92936 14.696 5.43847 15.1609 6.12425 16.0141C6.03025 15.8972 6.46364 16.4408 6.55731 16.5526C6.74784 16.7802 6.88732 16.918 6.99629 16.9909C7.20118 17.128 7.58451 17.1871 8.14709 17.1308C8.17065 16.7487 8.24136 16.378 8.34919 16.0355C5.38097 15.3101 3.70116 13.3949 3.70116 9.63947C3.70116 8.4006 4.0704 7.28368 4.75917 6.34756C4.5415 5.45368 4.57433 4.37259 5.06092 3.15611C5.1725 2.87715 5.40361 2.66314 5.69031 2.57328C5.77242 2.54949 5.81791 2.5389 5.89878 2.52648C6.70167 2.40319 7.83573 2.69681 9.31449 3.62311C10.181 3.41855 11.0885 3.31476 12.0012 3.31476C12.9129 3.31476 13.8196 3.41835 14.6854 3.62253C16.1619 2.68976 17.2986 2.39625 18.1072 2.52627C18.1919 2.53988 18.2645 2.55758 18.3249 2.57741C18.6059 2.66967 18.8316 2.88155 18.9414 3.15611C19.4279 4.37232 19.4608 5.45319 19.2433 6.34695C19.9342 7.28313 20.3012 8.39184 20.3012 9.63947C20.3012 13.3966 18.627 15.3046 15.6588 16.0318C15.7837 16.4467 15.8496 16.9103 15.8496 17.4118C15.8496 18.0763 15.8471 18.7108 15.8424 19.4223C15.8412 19.6124 15.8397 19.8156 15.8375 20.1279C16.2129 20.2107 16.5229 20.5074 16.6031 20.9086C16.7114 21.4502 16.3602 21.977 15.8186 22.0853C14.6794 22.3132 13.8353 21.5535 13.8353 20.5608C13.8353 20.4705 13.836 20.3414 13.8375 20.1142C13.8398 19.8012 13.8412 19.5987 13.8425 19.4092C13.8471 18.7017 13.8496 18.0714 13.8496 17.4118C13.8496 16.7145 13.6664 16.26 13.4237 16.0508C12.7627 15.481 13.0977 14.3971 13.965 14.2996C16.9314 13.9663 18.3012 12.8174 18.3012 9.63947C18.3012 8.68484 17.9893 7.89547 17.3881 7.23534C17.1301 6.95209 17.0567 6.54634 17.199 6.19062C17.3647 5.77639 17.4354 5.2336 17.2941 4.57678L17.2847 4.57944C16.7928 4.71861 16.1744 5.01956 15.4261 5.52826C15.182 5.69413 14.8772 5.74377 14.5932 5.66388C13.7729 5.43319 12.8913 5.31476 12.0012 5.31476C11.111 5.31476 10.2294 5.43319 9.40916 5.66388C9.12662 5.74335 8.82344 5.69468 8.57997 5.53077C7.8274 5.02414 7.2056 4.72355 6.71079 4.58352C6.56735 5.23672 6.63814 5.77758 6.80336 6.19062C6.94565 6.54634 6.87219 6.95209 6.61423 7.23534C6.01715 7.89096 5.70116 8.69352 5.70116 9.63947C5.70116 12.8114 7.07225 13.9681 10.023 14.2996C10.8883 14.3969 11.2246 15.4767 10.5675 16.048C10.3751 16.2153 10.1384 16.7799 10.1384 17.4118V20.5608C10.1384 21.5472 9.30356 22.2866 8.17878 22.0898C7.63476 21.9946 7.27093 21.4764 7.36613 20.9324C7.43827 20.5201 7.75331 20.2114 8.13841 20.1274V19.1379C7.22829 19.1991 6.47656 19.0496 5.88401 18.6531Z" fill="currentColor"></path></svg>

<svg xmlns="http://www.w3.org/2000/svg" width="24" height="24"><path fill="currentColor" d="M5.884 18.653c-.3-.2-.558-.456-.86-.816a50.59 50.59 0 0 1-.466-.579c-.463-.575-.755-.841-1.056-.95a1 1 0 1 1 .675-1.882c.752.27 1.261.735 1.947 1.588-.094-.117.34.427.433.539.19.227.33.365.44.438.204.137.588.196 1.15.14.024-.382.094-.753.202-1.096-2.968-.725-4.648-2.64-4.648-6.396 0-1.238.37-2.355 1.058-3.291-.218-.894-.185-1.975.302-3.192a1 1 0 0 1 .63-.583c.081-.024.127-.034.208-.047.803-.123 1.937.17 3.415 1.097a11.731 11.731 0 0 1 2.687-.308c.912 0 1.819.103 2.684.308 1.477-.933 2.614-1.227 3.422-1.097.085.014.158.032.218.051a1 1 0 0 1 .616.58c.487 1.215.52 2.296.302 3.19.691.936 1.058 2.045 1.058 3.292 0 3.758-1.674 5.666-4.642 6.393.125.415.19.878.19 1.38 0 .664-.002 1.299-.007 2.01 0 .19-.002.394-.005.706a1 1 0 0 1-.018 1.957c-1.14.228-1.984-.532-1.984-1.524l.002-.447.005-.705c.005-.707.008-1.338.008-1.997 0-.697-.184-1.152-.426-1.361-.661-.57-.326-1.654.541-1.751 2.966-.334 4.336-1.483 4.336-4.66 0-.955-.312-1.745-.913-2.405a1 1 0 0 1-.189-1.044c.166-.415.236-.957.095-1.614l-.01.002c-.491.14-1.11.44-1.858.95a1 1 0 0 1-.833.135 9.626 9.626 0 0 0-2.592-.35c-.89 0-1.772.12-2.592.35a1 1 0 0 1-.829-.133c-.753-.507-1.374-.807-1.87-.947-.143.653-.072 1.194.093 1.607a1 1 0 0 1-.189 1.044c-.597.656-.913 1.459-.913 2.404 0 3.172 1.371 4.33 4.322 4.66.865.098 1.202 1.178.545 1.749-.193.167-.43.732-.43 1.364v3.149c0 .986-.834 1.726-1.96 1.529a1 1 0 0 1-.04-1.963v-.99c-.91.062-1.661-.087-2.254-.484"/></svg>
